svgs/duotone/game-board.svg

<svg xmlns="http://www.w3.org/2000/svg" viewBox="0 0 448 512"><!--! Font Awesome Pro 6.3.0 by @fontawesome - https://fontawesome.com License - https://fontawesome.com/license (Commercial License) Copyright 2023 Fonticons, Inc. --><defs><style>.fa-secondary{opacity:.4}</style></defs><path class="fa-primary" d="M64 256l0 80h80V256H64zM384 416l-.0001-80h-80V416H384zM144 416h80v-80h-80V416zM64 96L64 176h80V96H64zM224 176h-80V256h80V176zM224 256v80h80V256H224zM384 256V176h-80V256H384zM304 96h-80v80h80V96z"/><path class="fa-secondary" d="M384 32h-320c-35.35 0-64 28.65-64 64v320c0 35.35 28.65 64 64 64h320c35.35 0 64-28.65 64-64V96C448 60.65 419.3 32 384 32zM384 416h-320l0-320h319.1L384 416z"/></svg>

<svg xmlns="http://www.w3.org/2000/svg" viewBox="0 0 448 512"><!-- Font Awesome Pro 6.0.0-alpha2 by @fontawesome - https://fontawesome.com License - https://fontawesome.com/license (Commercial License) --><defs><style>.fa-secondary{opacity:.4}</style></defs><path d="M384 32H64C28.654 32 0 60.652 0 96V416C0 451.346 28.654 480 64 480H384C419.346 480 448 451.346 448 416V96C448 60.652 419.346 32 384 32ZM384 416H64V96H384V416Z" class="fa-secondary"/><path d="M64 256V336H144V256H64ZM384 416V336H304V416H384ZM144 416H224V336H144V416ZM64 96V176H144V96H64ZM224 176H144V256H224V176ZM224 256V336H304V256H224ZM384 256V176H304V256H384ZM304 96H224V176H304V96Z" class="fa-primary"/></svg>
